X:115
T: Die erloeste Sklavin
N: D0172
O: Europa, Mitteleuropa, Deutschland, Untermainfranken, Spessart
N: Grundton ??; Auftakt rhythmisch korrigiert; Verzierungen;
N: Inzipit = Variante zum Lied
R: Ballade, Liebe mit gluecklichem Ausgang
M: 4/4
L: 1/8
K: F
(3FAG | F3dc3B | B2A2z2
AB | c3AdcBA | AGG2G2
FA | c2c2cf2d | dcc2c2B
A | B2B2BdcB | A2c2c2
FA | c2c2cf2d | dcc2c2B
A | B2B2BdcB | A2c2c2

@@@ Tune index: 2637
